usr/share/icons/biglinux-icons-material/22/actions/text_word_spacing.svg

<svg xmlns="http://www.w3.org/2000/svg" viewBox="0 0 22 22"><path d="M3 11v8h1v-8H3zm2 0v8h1v-7h1a2 2 0 0 1 2 2v5h1v-5a3 3 0 0 0-3-3H5zm8 0v8h1v-8h-1zm2 0v8h1v-4a3 3 0 0 1 3-3v-1a4 4 0 0 0-3 1.361V11h-1z" style="fill:currentColor;fill-opacity:1;stroke:none;color:#dedede"/><path d="M10 3 6 6l4 3V3zm3 0v6l4-3-4-3z" style="fill:currentColor;fill-opacity:1;stroke:none;color:#3daee9"/></svg>

<svg xmlns="http://www.w3.org/2000/svg" viewBox="0 0 22 22">
  <defs id="defs3051">
    <style type="text/css" id="current-color-scheme">
      .ColorScheme-Text {
        color:#dedede;
      }
      .ColorScheme-Highlight {
        color:#3daee9;
      }
      </style>
  </defs>
 <path 
     style="fill:currentColor;fill-opacity:1;stroke:none" 
     d="M 3 11 L 3 19 L 4 19 L 4 11 L 3 11 z M 5 11 L 5 19 L 6 19 L 6 12 L 7 12 A 2 2 0 0 1 9 14 L 9 19 L 10 19 L 10 14 A 3 3 0 0 0 7 11 L 6 11 L 5 11 z M 13 11 L 13 19 L 14 19 L 14 11 L 13 11 z M 15 11 L 15 15 L 15 19 L 16 19 L 16 15 A 3 2.9999979 0 0 1 19 12 L 19 11 A 3.9999852 4 0 0 0 16 12.361328 L 16 11 L 15 11 z "
     class="ColorScheme-Text"
     />
 <path 
     style="fill:currentColor;fill-opacity:1;stroke:none" 
     d="M 10 3 L 6 6 L 10 9 L 10 3 z M 13 3 L 13 9 L 17 6 L 13 3 z "
     class="ColorScheme-Highlight"
     />
</svg>
